X: 1
T: Farrel O'Gara
M: 4/4
L: 1/8
R: reel
K: Dmaj
A,D (3DDD A,DFA | BFAF E2 (3ABc | d2cA BdAF | (3GFE FD EDB,D |
A,D (3DDD A,DFA | BFAF EFAc | cdcd BdAF |1 GFEG FDB,D :|2 GFEG FDD2 ||
fd (3ddd fdgd | fd (3ddd edBc | dBBA Bcde | fagf e3d |
fd (3ddd fdgd | fd (3ddd edBc | dBBA BdAF | GFEG FDD2 |
fd (3ddd fdgd | fd (3ddd edBc | dBBA Bcde | fagf ef (3gfe |
a3f edBc | dfed BAFA | A,D (3DDD A,DFA | BFAF D2DB, ||
